img/svgicons/email.svg

<svg width="15" height="13" viewBox="0 0 15 13" fill="none" xmlns="http://www.w3.org/2000/svg">
<path d="M1.4397 4.23974C1.62945 4.37363 2.20142 4.77131 3.15564 5.43255C4.1099 6.09379 4.84092 6.60294 5.34874 6.96C5.40453 6.99914 5.52307 7.08423 5.7044 7.21537C5.88576 7.34659 6.03646 7.45264 6.15637 7.53353C6.27637 7.61439 6.42144 7.7051 6.59172 7.80551C6.76194 7.90584 6.9224 7.98131 7.07307 8.03127C7.22376 8.08163 7.36326 8.10658 7.49159 8.10658H7.5H7.50844C7.63677 8.10658 7.77632 8.0816 7.92702 8.03127C8.07763 7.98131 8.23823 7.90575 8.40831 7.80551C8.57847 7.70498 8.72354 7.61436 8.84354 7.53353C8.96354 7.45264 9.11412 7.34659 9.29554 7.21537C9.47684 7.08411 9.59552 6.99914 9.65132 6.96C10.1646 6.60294 11.4705 5.69609 13.5687 4.23956C13.976 3.95508 14.3164 3.61182 14.5897 3.21002C14.8633 2.80839 15 2.38705 15 1.94625C15 1.5779 14.8674 1.26258 14.6023 1.00033C14.3372 0.738016 14.0233 0.606934 13.6607 0.606934H1.33923C0.909571 0.606934 0.578919 0.752001 0.347334 1.04213C0.115778 1.33233 0 1.69505 0 2.13028C0 2.48184 0.153511 2.8628 0.460385 3.27293C0.76723 3.6831 1.09378 4.00539 1.4397 4.23974Z" fill="#337D5A"/>
<path d="M14.1628 5.13543C12.3327 6.37416 10.943 7.33686 9.99446 8.02332C9.67638 8.2576 9.41835 8.44049 9.22019 8.57154C9.02203 8.70268 8.75849 8.83661 8.42918 8.97326C8.1 9.11012 7.79321 9.17834 7.50856 9.17834H7.50003H7.49161C7.20702 9.17834 6.90006 9.11012 6.57087 8.97326C6.24169 8.83661 5.97797 8.70268 5.77987 8.57154C5.58182 8.44049 5.3237 8.2576 5.00566 8.02332C4.25227 7.4709 2.86557 6.50815 0.84551 5.13543C0.527348 4.92352 0.245541 4.68062 0 4.40723V11.0532C0 11.4218 0.131082 11.7369 0.393393 11.9992C0.655645 12.2616 0.970992 12.3927 1.33932 12.3927H13.6608C14.029 12.3927 14.3444 12.2616 14.6066 11.9992C14.869 11.7368 15 11.4218 15 11.0532V4.40723C14.76 4.67496 14.4811 4.91786 14.1628 5.13543Z" fill="#337D5A"/>
</svg>

<svg width="15" height="13" fill="none" xmlns="http://www.w3.org/2000/svg"><path d="M1.44 4.24c.19.134.761.531 1.716 1.193.954.66 1.685 1.17 2.193 1.527l.355.255c.182.132.332.238.452.319.12.08.265.171.436.272.17.1.33.175.481.225.15.05.29.076.419.076h.016c.129 0 .268-.025.419-.076.15-.05.311-.125.481-.225.17-.101.316-.192.436-.272.12-.081.27-.187.452-.319l.355-.255 3.918-2.72a3.976 3.976 0 0 0 1.02-1.03A2.21 2.21 0 0 0 15 1.946c0-.368-.133-.683-.398-.946a1.294 1.294 0 0 0-.941-.393H1.339c-.43 0-.76.145-.992.435C.116 1.332 0 1.695 0 2.13c0 .352.154.733.46 1.143.307.41.634.732.98.967Z" fill="#337D5A"/><path d="M14.163 5.135a174.087 174.087 0 0 0-4.169 2.888c-.318.235-.576.417-.774.549a4.778 4.778 0 0 1-.79.401c-.33.137-.637.205-.921.205h-.017a2.41 2.41 0 0 1-.921-.205 4.78 4.78 0 0 1-.791-.401 19.815 19.815 0 0 1-.774-.549c-.754-.552-2.14-1.515-4.16-2.888A4.434 4.434 0 0 1 0 4.407v6.646c0 .369.131.684.393.946.263.263.578.394.946.394h12.322c.368 0 .683-.131.946-.394a1.29 1.29 0 0 0 .393-.946V4.407c-.24.268-.519.51-.837.728Z" fill="#337D5A"/></svg>
